X:464
L:1/8
Q:1/2=110
M:4/4
K:D
 (3(ABc) | d2 AG FDFA | BGBd cAce | dfaf gfed | c2 e2 e2 (3(ABc) | d2 AG FDFA | BGBd cAce | 
 dfaf gfec | A2 d2 d2 :: A2 | dfaf dfaf | gfga g2 ef | gfed cdeg | fefg f2 f2 | dfaf dfaf | 
 gfga g2 ef | gfed ceag | f2 d2 d2 :|

